assets/img/logo-dark.svg

<svg width="220" height="54" viewBox="0 0 220 54" fill="none" xmlns="http://www.w3.org/2000/svg">
<g clip-path="url(#clip0)">
<path fill-rule="evenodd" clip-rule="evenodd" d="M9.19055 1.10204V12.4354C10.1754 11.4593 11.3414 10.6748 12.6264 10.1237C13.879 9.61009 15.225 9.34876 16.5836 9.35536C18.0515 9.33992 19.5057 9.63256 20.8477 10.2135C22.1896 10.7944 23.3879 11.6499 24.3615 12.7222C26.4958 14.9714 27.563 17.8545 27.563 21.3717C27.563 24.7636 26.4585 27.5989 24.2496 29.8777C22.0406 32.1564 19.427 33.2947 16.4087 33.2924C15.1207 33.3027 13.8435 33.0636 12.6509 32.589C11.3638 32.0437 10.1908 31.2716 9.19055 30.3113V32.7392H3.3335V1.10204H9.19055ZM15.345 14.6037C14.4906 14.5811 13.6408 14.7331 12.8503 15.0501C12.0597 15.367 11.3458 15.842 10.7545 16.4443C9.53694 17.6781 8.92814 19.2864 8.92814 21.2692C8.92814 23.2941 9.53694 24.9366 10.7545 26.183C11.3393 26.7961 12.0511 27.2806 12.8425 27.6044C13.634 27.9283 14.4871 28.0839 15.345 28.0611C16.194 28.0753 17.0363 27.9127 17.8158 27.5842C18.5953 27.2556 19.2941 26.7686 19.8655 26.1557C21.0924 24.8786 21.7047 23.2566 21.7024 21.2897C21.7001 19.3228 21.1041 17.7191 19.9145 16.4784C19.3384 15.8657 18.6342 15.3809 17.8494 15.0568C17.0647 14.7328 16.2178 14.5771 15.366 14.6003L15.345 14.6037ZM28.7176 9.91878H34.6656V20.8936C34.6656 23.0312 34.8172 24.5109 35.1204 25.3327C35.3846 26.1125 35.8939 26.7912 36.576 27.2723C37.3071 27.7467 38.1722 27.9856 39.0496 27.9552C39.9329 27.9796 40.8029 27.7414 41.5443 27.2723C42.2572 26.7821 42.7906 26.0821 43.0663 25.2747C43.3077 24.6156 43.4337 23.2088 43.4337 21.0609V9.91536H49.3047V19.5721C49.3047 23.5582 48.9817 26.2843 48.3356 27.7503C47.6309 29.4415 46.4091 30.8795 44.8367 31.8684C43.3042 32.8223 41.3542 33.3003 38.9867 33.3026C36.4208 33.3026 34.346 32.7437 32.7622 31.626C31.148 30.4727 29.9706 28.83 29.4138 26.9547C28.9473 25.5729 28.7141 23.0574 28.7141 19.4082V9.91536L28.7176 9.91878ZM50.8372 1.10545H56.6978V32.746H50.8372V1.10204V1.10545ZM58.3597 1.10545H64.2168V19.3263L72.8799 9.91878H80.1995L70.1788 20.8151L81.4626 32.746H74.1745L64.2168 22.2185V32.7426H58.3597V1.10545Z" fill="white"/>
<path fill-rule="evenodd" clip-rule="evenodd" d="M101.018 9.90171V32.729H98.0228V28.8021C96.8756 30.2121 95.4273 31.3611 93.7787 32.169C91.5377 33.2045 89.0212 33.5308 86.581 33.1022C84.1407 32.6737 81.8987 31.5117 80.1682 29.7787C79.0266 28.6586 78.1283 27.3252 77.5271 25.8584C76.9259 24.3915 76.6342 22.8214 76.6693 21.2419C76.6451 19.6783 76.9467 18.1261 77.556 16.6797C78.1653 15.2333 79.0695 13.9229 80.2137 12.8281C81.3108 11.7036 82.6343 10.8126 84.101 10.2108C85.5677 9.60912 87.146 9.30973 88.7368 9.33146C90.5449 9.30628 92.3319 9.71183 93.9431 10.5129C95.5771 11.3721 96.9789 12.5974 98.0333 14.0881V9.90171H101.018ZM88.9643 12.1793C87.3312 12.1694 85.7255 12.5886 84.3157 13.3932C82.9059 14.1977 81.744 15.3577 80.9519 16.7516C80.128 18.1499 79.6943 19.7347 79.6943 21.3478C79.6943 22.9608 80.128 24.5456 80.9519 25.944C81.7489 27.3609 82.9241 28.5409 84.3528 29.3587C85.7375 30.1645 87.3205 30.5883 88.9328 30.5845C90.5715 30.5857 92.182 30.1678 93.6037 29.3723C95.0305 28.6117 96.2091 27.4745 97.0046 26.0908C97.8128 24.6618 98.2241 23.0515 98.1977 21.4195C98.2312 20.2005 98.012 18.9875 97.5532 17.8532C97.0945 16.719 96.4057 15.6869 95.5281 14.8189C94.6814 13.958 93.6609 13.2779 92.5311 12.8218C91.4012 12.3657 90.1867 12.1434 88.9643 12.1691V12.1793ZM104.188 9.90171H107.183V14.0984C108.246 12.6101 109.651 11.3856 111.287 10.5232C112.891 9.72206 114.671 9.31642 116.472 9.3417C118.064 9.32088 119.643 9.62066 121.111 10.2223C122.578 10.8239 123.903 11.7145 125.002 12.8383C126.148 13.9325 127.053 15.2427 127.663 16.6892C128.273 18.1357 128.575 19.6882 128.55 21.2522C128.582 22.833 128.287 24.4039 127.682 25.8708C127.077 27.3377 126.175 28.6703 125.03 29.7889C123.301 31.5247 121.058 32.6872 118.616 33.1124C116.174 33.5375 113.657 33.204 111.42 32.1587C109.778 31.3379 108.333 30.1856 107.183 28.7781V41.0711H104.188V9.90171ZM116.252 12.1793C115.028 12.1523 113.812 12.3739 112.681 12.8301C111.55 13.2862 110.528 13.967 109.681 14.8291C108.805 15.6957 108.117 16.7262 107.659 17.8587C107.2 18.9912 106.981 20.2024 107.015 21.4195C106.988 23.0467 107.398 24.6525 108.204 26.0771C109.002 27.4619 110.183 28.5992 111.612 29.3587C113.038 30.1529 114.652 30.5707 116.294 30.5709C117.896 30.5712 119.468 30.1476 120.842 29.345C122.272 28.5282 123.447 27.348 124.243 25.9303C125.067 24.532 125.501 22.9472 125.501 21.3341C125.501 19.7211 125.067 18.1363 124.243 16.7379C123.452 15.3456 122.292 14.1865 120.884 13.3821C119.476 12.5777 117.873 12.1575 116.241 12.1657L116.252 12.1793ZM130.579 9.90171H133.578V14.0984C134.641 12.6101 136.047 11.3856 137.682 10.5232C139.286 9.72206 141.066 9.31642 142.867 9.3417C144.459 9.32088 146.038 9.62066 147.506 10.2223C148.974 10.8239 150.298 11.7145 151.398 12.8383C152.543 13.9325 153.448 15.2427 154.058 16.6892C154.668 18.1357 154.97 19.6882 154.945 21.2522C154.977 22.833 154.682 24.4039 154.077 25.8708C153.473 27.3377 152.571 28.6703 151.426 29.7889C149.697 31.5247 147.453 32.6872 145.011 33.1124C142.569 33.5375 140.052 33.204 137.815 32.1587C136.173 31.3379 134.729 30.1856 133.578 28.7781V41.0711H130.583V9.90171H130.579ZM142.643 12.1793C141.42 12.1523 140.204 12.3739 139.073 12.8301C137.941 13.2862 136.92 13.967 136.073 14.8291C135.196 15.6957 134.508 16.7262 134.05 17.8587C133.592 18.9912 133.373 20.2024 133.407 21.4195C133.38 23.0467 133.79 24.6525 134.596 26.0771C135.393 27.4619 136.575 28.5992 138.004 29.3587C139.426 30.1548 141.036 30.576 142.675 30.5811C144.277 30.5815 145.849 30.1578 147.223 29.3552C148.653 28.5384 149.828 27.3582 150.624 25.9405C151.448 24.5422 151.882 22.9574 151.882 21.3444C151.882 19.7313 151.448 18.1465 150.624 16.7482C149.833 15.3559 148.673 14.1968 147.265 13.3924C145.857 12.5879 144.254 12.1678 142.622 12.1759L142.643 12.1793ZM180.232 9.90171V32.729H177.243V28.8021C176.096 30.2121 174.648 31.3611 172.999 32.169C170.758 33.2053 168.241 33.532 165.8 33.1034C163.359 32.6749 161.116 31.5124 159.385 29.7787C158.244 28.6581 157.347 27.3247 156.745 25.8579C156.144 24.3912 155.852 22.8213 155.887 21.2419C155.862 19.6779 156.164 18.1254 156.774 16.679C157.384 15.2325 158.289 13.9223 159.434 12.8281C160.532 11.7036 161.855 10.8126 163.322 10.2108C164.788 9.60912 166.367 9.30973 167.958 9.33146C169.766 9.30628 171.553 9.71183 173.164 10.5129C174.798 11.3721 176.2 12.5974 177.254 14.0881V9.90171H180.232ZM168.174 12.1793C166.543 12.1706 164.938 12.5905 163.53 13.3949C162.121 14.1993 160.961 15.3588 160.169 16.7516C159.345 18.1499 158.912 19.7347 158.912 21.3478C158.912 22.9608 159.345 24.5456 160.169 25.944C160.965 27.3616 162.141 28.5418 163.57 29.3587C164.955 30.1649 166.538 30.5886 168.15 30.5845C169.788 30.5861 171.397 30.1681 172.817 29.3723C174.244 28.6117 175.423 27.4745 176.218 26.0908C177.031 24.6631 177.444 23.0523 177.418 21.4195C177.452 20.2002 177.233 18.9868 176.773 17.8524C176.314 16.718 175.624 15.6861 174.745 14.8189C173.899 13.9576 172.878 13.2774 171.749 12.8212C170.619 12.3651 169.404 12.143 168.182 12.1691L168.174 12.1793ZM182.212 9.90171H185.294V13.2413C186.052 12.0814 187.041 11.0817 188.202 10.3012C189.146 9.68538 190.254 9.35189 191.389 9.3417C192.334 9.37275 193.254 9.63962 194.062 10.1168L192.491 12.5788C191.991 12.3456 191.449 12.2099 190.896 12.1793C189.806 12.2119 188.769 12.642 187.988 13.3847C187.058 14.1872 186.344 15.4335 185.854 17.1409C185.479 18.4385 185.292 21.0655 185.294 25.022V32.7392H182.212V9.90171ZM212.715 25.1756C212.029 26.3695 211.162 27.4551 210.143 28.3957C209.29 29.095 208.313 29.6356 207.26 29.9904C206.139 30.3916 204.955 30.5962 203.761 30.5948C202.596 30.6181 201.439 30.4046 200.363 29.9679C199.287 29.5311 198.316 28.8805 197.512 28.0577C195.833 26.3753 194.962 24.2127 194.899 21.5697H216.046C216.018 18.4532 215.155 15.8569 213.456 13.7808C211.07 10.8351 207.874 9.36105 203.866 9.35877C199.982 9.35877 196.882 10.7964 194.566 13.6715C192.762 15.8583 191.791 18.5882 191.82 21.3956C191.812 24.4443 192.966 27.387 195.056 29.6523C197.214 32.0859 200.206 33.3038 204.034 33.306C205.616 33.3304 207.19 33.0723 208.677 32.5446C210.036 32.0356 211.286 31.2828 212.361 30.325C213.552 29.2227 214.532 27.9218 215.255 26.4835L212.715 25.1756ZM212.743 19.0292H195.203C195.826 16.9292 196.739 15.3584 197.957 14.3067C199.587 12.8775 201.713 12.1061 203.905 12.1486C205.286 12.1455 206.652 12.4393 207.904 13.0091C209.093 13.5212 210.143 14.2963 210.972 15.273C211.826 16.3876 212.422 17.6688 212.722 19.0292H212.743ZM217.491 1.10204H220.486V32.7426H217.491V1.10204Z" fill="#CD0000"/>
<path fill-rule="evenodd" clip-rule="evenodd" d="M184.941 54C184.273 53.959 178.168 49.4311 177.195 48.7414C174.746 46.993 174.672 45.0706 177.139 43.3188C178.038 42.6803 184.392 37.9612 184.941 38.0192L217.586 37.9168C218.226 37.9177 218.839 38.1662 219.292 38.6079C219.744 39.0495 219.999 39.6483 220 40.2729V51.5414C219.998 52.1657 219.743 52.764 219.291 53.2055C218.838 53.6469 218.225 53.8958 217.586 53.8976L184.941 54Z" fill="white"/>
<path fill-rule="evenodd" clip-rule="evenodd" d="M205.2 49.718C205.204 49.8176 205.186 49.9169 205.147 50.0089C205.107 50.1009 205.048 50.1835 204.972 50.2507C204.902 50.3228 204.817 50.3801 204.724 50.4189C204.63 50.4577 204.529 50.4771 204.427 50.476H204.402C204.301 50.4768 204.2 50.4572 204.107 50.4185C204.014 50.3797 203.929 50.3226 203.86 50.2507C203.785 50.1831 203.725 50.1006 203.685 50.0087C203.645 49.9168 203.626 49.8177 203.629 49.718V45.173C203.628 44.6819 203.727 44.1954 203.92 43.7416C204.112 43.2877 204.394 42.8754 204.75 42.5281C205.106 42.1808 205.528 41.9054 205.993 41.7176C206.458 41.5299 206.957 41.4335 207.46 41.4339C208.053 41.4198 208.64 41.5467 209.171 41.8037C209.702 42.0608 210.161 42.4401 210.508 42.9091C210.853 42.4396 211.311 42.0597 211.842 41.8026C212.372 41.5454 212.959 41.4189 213.552 41.4339C214.055 41.4339 214.553 41.5307 215.017 41.7186C215.482 41.9066 215.904 42.182 216.259 42.5293C216.615 42.8765 216.897 43.2888 217.089 43.7424C217.281 44.196 217.38 44.6822 217.379 45.173V49.718C217.382 49.8168 217.364 49.9151 217.326 50.0068C217.288 50.0985 217.231 50.1815 217.159 50.2507C217.088 50.3229 217.003 50.3802 216.908 50.419C216.814 50.4578 216.712 50.4772 216.61 50.476H216.592C216.387 50.4734 216.191 50.3927 216.046 50.2511C215.901 50.1095 215.818 49.9182 215.815 49.718V45.173C215.827 44.8758 215.778 44.5793 215.669 44.3013C215.561 44.0232 215.396 43.7694 215.185 43.555C214.974 43.3406 214.721 43.17 214.44 43.0535C214.16 42.9369 213.858 42.8769 213.553 42.8769C213.249 42.8769 212.947 42.9369 212.667 43.0535C212.386 43.17 212.133 43.3406 211.921 43.555C211.71 43.7694 211.546 44.0232 211.437 44.3013C211.329 44.5793 211.279 44.8758 211.291 45.173V49.718C211.289 49.9176 211.206 50.1084 211.062 50.2499C210.918 50.3914 210.723 50.4725 210.518 50.476V50.476C210.415 50.4772 210.313 50.4579 210.218 50.4191C210.123 50.3804 210.037 50.323 209.965 50.2507C209.887 50.1842 209.825 50.1023 209.782 50.0105C209.739 49.9186 209.717 49.8189 209.717 49.718V45.173C209.717 44.588 209.479 44.0269 209.055 43.6132C208.631 43.1995 208.056 42.9671 207.457 42.9671C206.857 42.9671 206.282 43.1995 205.858 43.6132C205.434 44.0269 205.196 44.588 205.196 45.173V49.718H205.2ZM181.562 44.3911C181.888 44.3917 182.207 44.4869 182.479 44.6646C182.75 44.8422 182.961 45.0944 183.085 45.3892C183.21 45.6839 183.242 46.0081 183.177 46.3206C183.113 46.6331 182.955 46.9199 182.723 47.1449C182.492 47.3698 182.197 47.5227 181.877 47.5842C181.556 47.6457 181.224 47.6131 180.923 47.4905C180.621 47.3679 180.364 47.1608 180.183 46.8954C180.002 46.63 179.906 46.3181 179.907 45.9994C179.907 45.7877 179.95 45.5782 180.034 45.3829C180.117 45.1875 180.239 45.0101 180.393 44.8607C180.547 44.7114 180.729 44.593 180.929 44.5124C181.13 44.4319 181.345 44.3906 181.562 44.3911V44.3911ZM189.773 41.4339C190.249 41.4334 190.721 41.506 191.173 41.6491C191.337 41.6855 191.482 41.7783 191.582 41.9107C191.681 42.043 191.729 42.2059 191.715 42.3696V42.4105C191.714 42.5292 191.685 42.6461 191.629 42.7516C191.574 42.8572 191.493 42.9487 191.395 43.0187C191.297 43.0887 191.183 43.1353 191.063 43.1548C190.943 43.1743 190.82 43.1662 190.704 43.131C190.404 43.0326 190.09 42.983 189.773 42.9842C189.362 42.9706 188.951 43.0381 188.566 43.1826C188.182 43.327 187.831 43.5456 187.535 43.8251C187.238 44.1047 187.003 44.4396 186.842 44.8099C186.681 45.1802 186.598 45.5784 186.598 45.9806C186.598 46.3828 186.681 46.7809 186.842 47.1512C187.003 47.5216 187.238 47.8565 187.535 48.136C187.831 48.4156 188.182 48.6342 188.566 48.7786C188.951 48.9231 189.362 48.9906 189.773 48.977C190.089 48.9772 190.403 48.93 190.704 48.837C190.82 48.7995 190.944 48.7896 191.065 48.8082C191.186 48.8267 191.301 48.8731 191.399 48.9436C191.498 49.014 191.579 49.1065 191.634 49.2132C191.688 49.32 191.716 49.438 191.715 49.5575C191.729 49.7212 191.681 49.8841 191.582 50.0164C191.482 50.1487 191.337 50.2416 191.173 50.278C190.72 50.4172 190.248 50.4875 189.773 50.4863C188.566 50.4539 187.418 49.9628 186.576 49.1175C185.733 48.2723 185.261 47.1394 185.261 45.9601C185.261 44.7808 185.733 43.648 186.576 42.8027C187.418 41.9574 188.566 41.4663 189.773 41.4339V41.4339ZM197.544 41.4339C196.471 41.4329 195.43 41.7952 194.6 42.4591C193.77 43.123 193.201 44.0473 192.99 45.0746C192.78 46.1019 192.941 47.1686 193.447 48.0929C193.952 49.0172 194.77 49.742 195.761 50.1436C196.753 50.5453 197.856 50.5991 198.883 50.2957C199.911 49.9924 200.799 49.3508 201.396 48.4801C201.993 47.6095 202.262 46.5638 202.157 45.5212C202.053 44.4785 201.581 43.5035 200.823 42.7622C200.399 42.333 199.889 41.9935 199.325 41.765C198.761 41.5365 198.155 41.4238 197.544 41.4339V41.4339ZM197.544 42.9842C197.948 42.9767 198.349 43.0509 198.721 43.2019C199.094 43.3529 199.431 43.5776 199.71 43.8618C199.995 44.1396 200.222 44.4696 200.376 44.8329C200.53 45.1962 200.61 45.5856 200.61 45.9789C200.61 46.3722 200.53 46.7616 200.376 47.1249C200.222 47.4882 199.995 47.8182 199.71 48.096C199.431 48.3806 199.094 48.6058 198.722 48.7574C198.349 48.9091 197.948 48.9838 197.544 48.977C197.132 48.9906 196.722 48.9231 196.337 48.7786C195.953 48.6342 195.602 48.4156 195.305 48.136C195.009 47.8565 194.774 47.5216 194.613 47.1512C194.452 46.7809 194.369 46.3828 194.369 45.9806C194.369 45.5784 194.452 45.1802 194.613 44.8099C194.774 44.4396 195.009 44.1047 195.305 43.8251C195.602 43.5456 195.953 43.327 196.337 43.1826C196.722 43.0381 197.132 42.9706 197.544 42.9842V42.9842Z" fill="#013068"/>
</g>
<defs>
<clipPath id="clip0">
<rect width="220" height="54" fill="white"/>
</clipPath>
</defs>
</svg>

<svg width="220" height="54" fill="none" xmlns="http://www.w3.org/2000/svg"><g clip-path="url(#clip0)" fill-rule="evenodd" clip-rule="evenodd"><path d="M9.19 1.102v11.333c.985-.976 2.151-1.76 3.436-2.311a10.303 10.303 0 013.958-.769 10.461 10.461 0 014.264.858c1.342.581 2.54 1.437 3.514 2.51 2.134 2.248 3.201 5.132 3.201 8.649 0 3.392-1.104 6.227-3.313 8.506-2.21 2.278-4.823 3.417-7.841 3.414a9.951 9.951 0 01-3.758-.703 11.437 11.437 0 01-3.46-2.278v2.428H3.333V1.102h5.858zm6.155 13.502a6.26 6.26 0 00-2.495.446 6.134 6.134 0 00-2.095 1.394c-1.218 1.234-1.827 2.842-1.827 4.825 0 2.025.609 3.668 1.826 4.914a6.05 6.05 0 002.088 1.421c.792.324 1.645.48 2.503.457a6.102 6.102 0 002.47-.477 5.973 5.973 0 002.05-1.428c1.227-1.277 1.84-2.9 1.837-4.866-.002-1.967-.598-3.57-1.788-4.812a5.951 5.951 0 00-2.065-1.421 6.076 6.076 0 00-2.483-.457l-.021.004zm13.373-4.685h5.948v10.975c0 2.137.151 3.617.454 4.439.265.78.774 1.458 1.456 1.94a4.275 4.275 0 002.474.682 4.44 4.44 0 002.494-.683 3.994 3.994 0 001.522-1.997c.242-.66.368-2.066.368-4.214V9.915h5.87v9.657c0 3.986-.322 6.712-.968 8.178a8.931 8.931 0 01-3.5 4.118c-1.532.954-3.482 1.432-5.85 1.435-2.565 0-4.64-.56-6.224-1.677a8.842 8.842 0 01-3.348-4.671c-.467-1.382-.7-3.898-.7-7.547V9.915l.004.004zm22.12-8.814h5.86v31.641h-5.86V1.102v.003zm7.522 0h5.857v18.221L72.88 9.92h7.32L70.178 20.815l11.284 11.931h-7.288l-9.958-10.528v10.525H58.36V1.105z" fill="#fff"/><path d="M101.018 9.902v22.827h-2.995v-3.927a12.636 12.636 0 01-4.244 3.367 12.161 12.161 0 01-7.198.933 11.99 11.99 0 01-6.413-3.323 11.724 11.724 0 01-2.64-3.92 11.495 11.495 0 01-.859-4.617 11.297 11.297 0 01.887-4.562 11.526 11.526 0 012.658-3.852 11.558 11.558 0 013.887-2.617 11.795 11.795 0 014.636-.88c1.808-.025 3.595.38 5.206 1.182a11.64 11.64 0 014.09 3.575V9.902h2.985zm-12.054 2.277a9.27 9.27 0 00-4.648 1.214 8.984 8.984 0 00-3.364 3.359 9.05 9.05 0 00-1.258 4.596 9.05 9.05 0 001.258 4.596 9.058 9.058 0 003.4 3.415 9.068 9.068 0 004.58 1.225 9.556 9.556 0 004.672-1.212 8.562 8.562 0 003.4-3.281 9.182 9.182 0 001.194-4.672 8.858 8.858 0 00-.645-3.566 9.033 9.033 0 00-2.025-3.034 8.847 8.847 0 00-2.997-1.997 9.026 9.026 0 00-3.567-.653v.01zm15.224-2.277h2.995v4.196a11.8 11.8 0 014.104-3.575 11.256 11.256 0 015.185-1.181c1.592-.021 3.171.279 4.639.88a11.593 11.593 0 013.891 2.616 11.51 11.51 0 012.661 3.851c.61 1.447.912 3 .887 4.563a11.498 11.498 0 01-.868 4.619 11.735 11.735 0 01-2.652 3.918 11.94 11.94 0 01-6.414 3.323 12.11 12.11 0 01-7.196-.953 12.938 12.938 0 01-4.237-3.38V41.07h-2.995V9.901zm12.064 2.277a9.018 9.018 0 00-3.571.651 8.838 8.838 0 00-3 2 9.022 9.022 0 00-2.022 3.029 8.82 8.82 0 00-.644 3.56 9.146 9.146 0 001.189 4.658 8.568 8.568 0 003.408 3.282 9.63 9.63 0 004.682 1.212 9.018 9.018 0 004.548-1.226 9.03 9.03 0 003.401-3.415 9.05 9.05 0 001.258-4.596 9.05 9.05 0 00-1.258-4.596 8.98 8.98 0 00-3.359-3.356 9.269 9.269 0 00-4.643-1.216l.011.013zm14.327-2.277h2.999v4.196a11.809 11.809 0 014.104-3.575 11.256 11.256 0 015.185-1.181c1.592-.021 3.171.279 4.639.88a11.597 11.597 0 013.892 2.616 11.521 11.521 0 012.66 3.851c.61 1.447.912 3 .887 4.563a11.498 11.498 0 01-.868 4.619 11.717 11.717 0 01-2.651 3.918 11.944 11.944 0 01-6.415 3.323 12.11 12.11 0 01-7.196-.953 12.948 12.948 0 01-4.237-3.38V41.07h-2.995V9.901h-.004zm12.064 2.277a9.016 9.016 0 00-3.57.651 8.829 8.829 0 00-3 2 9.01 9.01 0 00-2.023 3.029 8.836 8.836 0 00-.643 3.56 9.146 9.146 0 001.189 4.658 8.561 8.561 0 003.408 3.282 9.628 9.628 0 004.671 1.222 9.017 9.017 0 004.548-1.226 9.03 9.03 0 003.401-3.415 9.05 9.05 0 001.258-4.596 9.05 9.05 0 00-1.258-4.596 8.98 8.98 0 00-3.359-3.356 9.269 9.269 0 00-4.643-1.216l.021.003zm37.589-2.277v22.827h-2.989v-3.927a12.63 12.63 0 01-4.244 3.367 12.159 12.159 0 01-7.199.934 11.993 11.993 0 01-6.415-3.324 11.748 11.748 0 01-2.64-3.921 11.498 11.498 0 01-.858-4.616 11.274 11.274 0 01.887-4.563 11.521 11.521 0 012.66-3.85 11.567 11.567 0 013.888-2.618 11.793 11.793 0 014.636-.88c1.808-.025 3.595.38 5.206 1.182a11.636 11.636 0 014.09 3.575V9.902h2.978zm-12.058 2.277a9.27 9.27 0 00-4.644 1.216 8.984 8.984 0 00-3.361 3.357 9.048 9.048 0 00-1.257 4.596c0 1.613.433 3.198 1.257 4.596a9.038 9.038 0 003.401 3.415 9.063 9.063 0 004.58 1.225 9.53 9.53 0 004.667-1.212 8.558 8.558 0 003.401-3.281 9.14 9.14 0 001.2-4.672 8.833 8.833 0 00-.645-3.567 9.012 9.012 0 00-2.028-3.033 8.841 8.841 0 00-2.996-1.998 9.02 9.02 0 00-3.567-.652l-.008.01zm14.038-2.277h3.082v3.34a10.405 10.405 0 012.908-2.94 5.934 5.934 0 013.187-.96 5.62 5.62 0 012.673.775l-1.571 2.462a4.343 4.343 0 00-1.595-.4 4.411 4.411 0 00-2.908 1.206c-.93.802-1.644 2.049-2.134 3.756-.375 1.298-.562 3.925-.56 7.881v7.717h-3.082V9.902zm30.503 15.274a13.614 13.614 0 01-2.572 3.22 9.16 9.16 0 01-2.883 1.594 10.349 10.349 0 01-3.499.605 8.582 8.582 0 01-3.398-.627 8.404 8.404 0 01-2.851-1.91c-1.679-1.683-2.55-3.845-2.613-6.488h21.147c-.028-3.117-.891-5.713-2.59-7.79-2.386-2.945-5.582-4.419-9.59-4.421-3.884 0-6.984 1.437-9.3 4.313a11.94 11.94 0 00-2.746 7.724 12.127 12.127 0 003.236 8.256c2.158 2.434 5.15 3.652 8.978 3.654a13.277 13.277 0 004.643-.761 11.712 11.712 0 003.684-2.22 13.495 13.495 0 002.894-3.841l-2.54-1.308zm.028-6.147h-17.54c.623-2.1 1.536-3.67 2.754-4.722a8.768 8.768 0 015.948-2.158 9.608 9.608 0 013.999.86 8.357 8.357 0 013.068 2.264 9.56 9.56 0 011.75 3.756h.021zm4.748-17.927h2.995v31.64h-2.995V1.103z" fill="#CD0000"/><path d="M184.941 54c-.668-.041-6.773-4.569-7.746-5.259-2.449-1.748-2.523-3.67-.056-5.422.899-.639 7.253-5.358 7.802-5.3l32.645-.102c.64 0 1.253.25 1.706.69.452.443.707 1.041.708 1.666V51.54a2.337 2.337 0 01-.709 1.665 2.454 2.454 0 01-1.705.692L184.941 54z" fill="#fff"/><path d="M205.2 49.718a.676.676 0 01-.228.533.747.747 0 01-.545.225h-.025a.755.755 0 01-.542-.225.677.677 0 01-.231-.533v-4.545a3.637 3.637 0 01.291-1.431c.192-.454.474-.867.83-1.214a3.836 3.836 0 011.243-.81 3.914 3.914 0 011.467-.284 3.725 3.725 0 011.711.37c.531.257.99.636 1.337 1.105a3.6 3.6 0 011.334-1.106 3.704 3.704 0 011.71-.37c.503 0 1.001.098 1.465.286.465.188.887.463 1.242.81.356.347.638.76.83 1.213.192.454.291.94.29 1.431v4.545a.698.698 0 01-.22.533.748.748 0 01-.549.225h-.018a.796.796 0 01-.546-.225.761.761 0 01-.231-.533v-4.545a2.148 2.148 0 00-.146-.872 2.201 2.201 0 00-.484-.746 2.257 2.257 0 00-.745-.502 2.309 2.309 0 00-2.519.502 2.216 2.216 0 00-.484.746 2.166 2.166 0 00-.146.872v4.545a.757.757 0 01-.229.532.795.795 0 01-.544.226.77.77 0 01-.553-.225.712.712 0 01-.248-.533v-4.545c0-.585-.238-1.146-.662-1.56a2.29 2.29 0 00-1.598-.646c-.6 0-1.175.233-1.599.646a2.179 2.179 0 00-.662 1.56v4.545h.004zm-23.638-5.327c.326 0 .645.096.917.274.271.177.482.43.606.724.125.295.157.62.092.932-.064.312-.222.599-.454.824a1.663 1.663 0 01-.846.44 1.689 1.689 0 01-.954-.095 1.642 1.642 0 01-.74-.595 1.58 1.58 0 01.21-2.034 1.663 1.663 0 011.169-.47zm8.211-2.957c.476 0 .948.072 1.4.215.164.036.309.13.409.262a.67.67 0 01.133.459v.04a.764.764 0 01-.32.608.79.79 0 01-.691.113 2.95 2.95 0 00-.931-.147 3.143 3.143 0 00-1.207.199 3.082 3.082 0 00-1.031.642c-.297.28-.532.615-.693.985a2.935 2.935 0 000 2.341c.161.37.396.705.693.985.296.28.647.498 1.031.643.385.144.796.212 1.207.198.316 0 .63-.047.931-.14a.787.787 0 01.695.107.75.75 0 01.316.614.67.67 0 01-.133.458.703.703 0 01-.409.262c-.453.14-.925.21-1.4.208a4.692 4.692 0 01-3.197-1.368 4.47 4.47 0 01-1.315-3.158c0-1.18.472-2.312 1.315-3.157a4.692 4.692 0 013.197-1.37zm7.771 0a4.71 4.71 0 00-2.944 1.025 4.516 4.516 0 00-1.61 2.616 4.43 4.43 0 00.457 3.018 4.6 4.6 0 002.314 2.05 4.745 4.745 0 003.122.153 4.631 4.631 0 002.513-1.816 4.44 4.44 0 00.761-2.959 4.483 4.483 0 00-1.334-2.759 4.458 4.458 0 00-1.498-.997 4.544 4.544 0 00-1.781-.331zm0 1.55c.404-.007.805.067 1.177.218.373.15.71.376.989.66a2.936 2.936 0 010 4.234c-.279.285-.616.51-.988.661a2.994 2.994 0 01-1.178.22 3.14 3.14 0 01-1.207-.198 3.095 3.095 0 01-1.032-.643 2.998 2.998 0 01-.692-.985 2.935 2.935 0 010-2.341 3 3 0 01.692-.985c.297-.28.648-.498 1.032-.642a3.14 3.14 0 011.207-.199z" fill="#013068"/></g><defs><clipPath id="clip0"><path fill="#fff" d="M0 0h220v54H0z"/></clipPath></defs></svg>
